X: 930
T: Where Did You Find Her?   #2
R: hornpipe
%S: s:2 b:12(6+6)
B: Francis O'Neill: "The Dance Music of Ireland" (1907) #930
Z: Frank Nordberg - http://www.musicaviva.com
F: http://www.musicaviva.com/abc/tunes/ireland/oneill-1001/0930/oneill-1001-0930-1.abc
N: Compacted via repeats and multiple endings [JC] (and dropping of slurs)
M: C|
L: 1/8
K: D
"^A"[|] {g}fe | dAFA DAFA | dAFA [1,3 DAFA | (3Bcd ef gefd | edcB A2 :|[2,4 D2FA | B>ged cABc | d2f2 d2 :|
"^B"|: fg |: afdf .Adcd | .Fdcd .Adcd |1,3 (3Bcd ef gefd | cdef e2bg :|2,4 B>ged cABc | d2f2 d2 :|
